X: 1
T: Kitchen Girl, The
M: 4/4
L: 1/8
R: reel
K: Dmaj
a4g4 | efed c2 cd | ecef gaba | g2e2 e2 ef :||
abaf gagg | efed cdef | g2 d2 efed |1 c2A2A2 eg :|2 c2A2A2 A2 ||
